assets/svg/category.svg

<svg xmlns="http://www.w3.org/2000/svg" width="800" height="800" fill="none" viewBox="0 0 24 24">
    <path stroke="#292d32" stroke-linecap="round" stroke-linejoin="round" stroke-miterlimit="10"
        stroke-width="1.5"
        d="M5 10h2q3 0 3-3V5q0-3-3-3H5Q2 2 2 5v2q0 3 3 3M17 10h2q3 0 3-3V5q0-3-3-3h-2q-3 0-3 3v2q0 3 3 3M17 22h2q3 0 3-3v-2q0-3-3-3h-2q-3 0-3 3v2q0 3 3 3M5 22h2q3 0 3-3v-2q0-3-3-3H5q-3 0-3 3v2q0 3 3 3" />
</svg>

<?xml version="1.0" encoding="utf-8"?><!-- Uploaded to: SVG Repo, www.svgrepo.com, Generator: SVG Repo Mixer Tools -->
<svg width="800px" height="800px" viewBox="0 0 24 24" fill="none" xmlns="http://www.w3.org/2000/svg">
<path d="M5 10H7C9 10 10 9 10 7V5C10 3 9 2 7 2H5C3 2 2 3 2 5V7C2 9 3 10 5 10Z" stroke="#292D32" stroke-width="1.5" stroke-miterlimit="10" stroke-linecap="round" stroke-linejoin="round"/>
<path d="M17 10H19C21 10 22 9 22 7V5C22 3 21 2 19 2H17C15 2 14 3 14 5V7C14 9 15 10 17 10Z" stroke="#292D32" stroke-width="1.5" stroke-miterlimit="10" stroke-linecap="round" stroke-linejoin="round"/>
<path d="M17 22H19C21 22 22 21 22 19V17C22 15 21 14 19 14H17C15 14 14 15 14 17V19C14 21 15 22 17 22Z" stroke="#292D32" stroke-width="1.5" stroke-miterlimit="10" stroke-linecap="round" stroke-linejoin="round"/>
<path d="M5 22H7C9 22 10 21 10 19V17C10 15 9 14 7 14H5C3 14 2 15 2 17V19C2 21 3 22 5 22Z" stroke="#292D32" stroke-width="1.5" stroke-miterlimit="10" stroke-linecap="round" stroke-linejoin="round"/>
</svg>
